X:1
T: Billy MacKinnon
C:
R:Strathspey
Q:128
K:A
M:4/4
L:1/16
|:f2|ec3 ce3 f4 fa3|ec3 B3A GB3 B3f|ec3 ce3 f4 fa3|ec3 B3c A6f2|
ec3 ce3 f4 fa3|ec3 B3A GB3 B3f|ec3 ce3 f4 fa3|ec3 B3c A6d2|
ce3 e3a fd3 d4|ec3 B3A GB3 B3d|ce3 e3a fd3 fa3|ec3 B3c A6d2|
ce3 e3a fd3 d4|ec3 B3A GB3 B3d|ce3 e3a fd3 fa3|ec3 B3c A6:|
